X: 288
T:Maggie Brown's Favorite
L:1/8
M:6/8
Z:Andrew Kuntz
K:G
dBG GAB|E2E E2c|AFD DEF|G2G G2g|dBG Bcd|E2E E2c|AFD DEF|GBA G3:|/
[|ga|bgb afd|efg gfe|dBg dBG|AFD Dga|bgb afd|efg gfe|faf gc^c|d3 de=f|ec
e
dBd|cac BgB|Ace cBG|FAF DEF|GAB EFG|ABc def|gdB cAF|G3 g2g|]

